Adwaita++-Light/panel/16/synergy-panel.svg

<svg height="16" width="16" xmlns="http://www.w3.org/2000/svg">
  <g fill="#444">
    <path d="m8 1c-3.8660125 0-7 3.1339875-7 7l1 2 1-2a5 5 0 0 1 5-5l-2-1zm6 5-1 2a5 5 0 0 1 -5 5l2 1-2 1c3.866012 0 7-3.133988 7-7z" opacity=".3"/>
    <path d="m8 1-2 1 2 1a5 5 0 0 1 5 5l1-2 1 2c0-3.8659932-3.134007-7-7-7zm-7 7c0 3.865993 3.1340068 7 7 7l2-1-2-1a5 5 0 0 1 -5-5l-1 2z"/>
  </g>
</svg>

<svg xmlns="http://www.w3.org/2000/svg" width="16" height="16" version="1.1">
 <defs>
  <style id="current-color-scheme" type="text/css">
   .ColorScheme-Text { color:#444444; } .ColorScheme-Highlight { color:#4285f4; }
  </style>
 </defs>
 <path style="opacity:0.3;fill:currentColor" class="ColorScheme-Text" d="M 8 1 C 4.1339875 1 1 4.1339875 1 8 L 2 10 L 3 8 A 5 5 0 0 1 8 3 L 6 2 L 8 1 z M 14 6 L 13 8 A 5 5 0 0 1 8 13 L 10 14 L 8 15 C 11.866012 15 15 11.866012 15 8 L 14 6 z"/>
 <path style="fill:currentColor" class="ColorScheme-Text" d="M 8 1 L 6 2 L 8 3 A 5 5 0 0 1 13 8 L 14 6 L 15 8 C 15 4.1340068 11.865993 1 8 1 z M 1 8 C 1 11.865993 4.1340068 15 8 15 L 10 14 L 8 13 A 5 5 0 0 1 3 8 L 2 10 L 1 8 z"/>
</svg>
